X: 10374
T: The DEIL AMANG THE TAILORS
R: Reel.
%R: reel
B: W. Hamilton "Universal Tune-Book" Vol. 1 Glasgow 1844 p.37 #4
S: http://imslp.org/wiki/Hamilton's_Universal_Tune-Book_(Various)
Z: 2016 John Chambers <jc:trillian.mit.edu>
M: C|
L: 1/8
K: A
%%slurgraces yes
%%graceslurs yes
% - - - - - - - - - - - - - - - - - - - - - - - - -
e2 |\
{g}a2ea {g}a2ea | {g}a2ea (fe).d.c | dfBf dfBf | dfBa (ga)bg |\
{g}a2ea {g}a2ea | {g}a2ea (fe).d.c | .f(dcB) .e(cBA) | .E2.G2 .A2 |]
d2 |\
ceAe ceAe | ceAa (fe).d.c | dfBf dfBf | dfBa( ga)bg |\
ceAe ceAe | ceAa (fe).d.c | .f(dcB) .e(cBA) | .E2.F2 .A2 |]
% - - - - - - - - - - - - - - - - - - - - - - - - -

%%sep 1 1 500
%%sep 1 1 500

